public/assets/img/home1/icon/react-icon.svg

<svg width="24" height="24" viewBox="0 0 24 24" fill="none" xmlns="http://www.w3.org/2000/svg">
<mask id="mask0_1531_62777" style="mask-type:alpha" maskUnits="userSpaceOnUse" x="0" y="0" width="24" height="24">
<rect width="24" height="24" fill="#D9D9D9"/>
</mask>
<g mask="url(#mask0_1531_62777)">
<path d="M23.8588 12.0505C23.8588 10.5731 21.9381 9.17302 18.9932 8.30478C19.6728 5.4137 19.3707 3.11356 18.0399 2.37715C17.7331 2.20441 17.3745 2.12259 16.9828 2.12259V3.13629C17.1999 3.13629 17.3745 3.1772 17.5208 3.25447C18.1626 3.60904 18.441 4.95912 18.224 6.69559C18.172 7.12289 18.0871 7.57292 17.9833 8.03204C17.0583 7.81384 16.0484 7.64565 14.9865 7.53655C14.3494 6.69559 13.6887 5.93191 13.0233 5.26369C14.5618 3.88633 16.0059 3.13174 16.9875 3.13174V2.11804C15.6897 2.11804 13.9907 3.00901 12.2729 4.55455C10.5551 3.0181 8.85612 2.13622 7.55831 2.13622V3.14992C8.53521 3.14992 9.98404 3.89997 11.5225 5.26823C10.8618 5.93646 10.2011 6.69559 9.57346 7.53655C8.50689 7.64565 7.49696 7.81384 6.57198 8.03659C6.46343 7.58201 6.3832 7.14108 6.32657 6.71832C6.10476 4.98185 6.37848 3.63177 7.01559 3.27266C7.15717 3.19083 7.34122 3.15447 7.55831 3.15447V2.14077C7.16189 2.14077 6.80322 2.22259 6.49175 2.39533C5.16562 3.13174 4.8683 5.42733 5.5526 8.30933C2.61719 9.18211 0.705872 10.5776 0.705872 12.0505C0.705872 13.5278 2.62663 14.9279 5.57148 15.7962C4.8919 18.6872 5.19394 20.9874 6.52478 21.7238C6.83154 21.8965 7.19021 21.9783 7.58663 21.9783C8.88444 21.9783 10.5834 21.0874 12.3012 19.5418C14.019 21.0783 15.718 21.9602 17.0158 21.9602C17.4122 21.9602 17.7709 21.8783 18.0824 21.7056C19.4085 20.9692 19.7058 18.6736 19.0215 15.7916C21.9475 14.9234 23.8588 13.5233 23.8588 12.0505ZM17.7143 9.01846C17.5397 9.60486 17.3226 10.2094 17.0772 10.814C16.8837 10.4504 16.6807 10.0867 16.4589 9.72305C16.2418 9.35939 16.0106 9.00483 15.7794 8.65935C16.4495 8.75481 17.096 8.873 17.7143 9.01846ZM15.5528 13.8597C15.1847 14.4733 14.8072 15.0552 14.4155 15.5961C13.7123 15.6552 12.9997 15.6871 12.2823 15.6871C11.5697 15.6871 10.8571 15.6552 10.1587 15.6007C9.76695 15.0597 9.38468 14.4824 9.01658 13.8733C8.65791 13.2778 8.33228 12.6732 8.03496 12.0641C8.32756 11.455 8.65791 10.8458 9.01186 10.2504C9.37997 9.63668 9.75751 9.05483 10.1492 8.51389C10.8524 8.45479 11.565 8.42297 12.2823 8.42297C12.995 8.42297 13.7076 8.45479 14.406 8.50934C14.7977 9.05028 15.18 9.62759 15.5481 10.2367C15.9068 10.8322 16.2324 11.4368 16.5297 12.0459C16.2324 12.655 15.9068 13.2642 15.5528 13.8597ZM17.0772 13.2687C17.332 13.8779 17.5491 14.487 17.7284 15.0779C17.1102 15.2234 16.4589 15.3461 15.7841 15.4416C16.0153 15.0916 16.2466 14.7324 16.4637 14.3642C16.6807 14.0006 16.8837 13.6324 17.0772 13.2687ZM12.2918 18.119C11.8529 17.6826 11.414 17.1962 10.9798 16.6644C11.4046 16.6826 11.8387 16.6962 12.2776 16.6962C12.7212 16.6962 13.1601 16.6871 13.5896 16.6644C13.1649 17.1962 12.726 17.6826 12.2918 18.119ZM8.78061 15.4416C8.11047 15.3461 7.46392 15.2279 6.8457 15.0825C7.02031 14.4961 7.2374 13.8915 7.4828 13.2869C7.67629 13.6506 7.87922 14.0142 8.10103 14.3779C8.32284 14.7415 8.54937 15.0961 8.78061 15.4416ZM12.2682 5.98191C12.7071 6.4183 13.146 6.9047 13.5802 7.43655C13.1554 7.41837 12.7212 7.40473 12.2823 7.40473C11.8387 7.40473 11.3998 7.41382 10.9704 7.43655C11.3951 6.9047 11.834 6.4183 12.2682 5.98191ZM8.7759 8.65935C8.54465 9.00937 8.3134 9.36848 8.09631 9.73669C7.87922 10.1003 7.67629 10.464 7.4828 10.8277C7.22796 10.2185 7.01087 9.60941 6.83154 9.01846C7.44977 8.87755 8.10103 8.75481 8.7759 8.65935ZM4.50492 14.3506C2.83428 13.6642 1.75356 12.7641 1.75356 12.0505C1.75356 11.3368 2.83428 10.4322 4.50492 9.75033C4.91078 9.58213 5.35439 9.43213 5.81217 9.29121C6.08117 10.1822 6.43512 11.1095 6.87401 12.0596C6.43983 13.0051 6.09061 13.9279 5.82632 14.8143C5.35911 14.6734 4.9155 14.5188 4.50492 14.3506ZM7.04391 20.8465C6.40208 20.4919 6.12364 19.1418 6.34073 17.4053C6.39264 16.978 6.47759 16.528 6.58142 16.0689C7.5064 16.2871 8.51633 16.4553 9.57818 16.5644C10.2153 17.4053 10.876 18.169 11.5414 18.8372C10.0029 20.2146 8.55881 20.9692 7.57719 20.9692C7.36482 20.9646 7.18549 20.9237 7.04391 20.8465ZM18.2381 17.3826C18.4599 19.1191 18.1862 20.4692 17.5491 20.8283C17.4075 20.9101 17.2235 20.9465 17.0064 20.9465C16.0295 20.9465 14.5806 20.1964 13.0422 18.8282C13.7029 18.1599 14.3636 17.4008 14.9912 16.5598C16.0578 16.4507 17.0677 16.2825 17.9927 16.0598C18.1013 16.5189 18.1862 16.9599 18.2381 17.3826ZM20.055 14.3506C19.6492 14.5188 19.2056 14.6688 18.7478 14.8097C18.4788 13.9188 18.1248 12.9914 17.686 12.0414C18.1201 11.0959 18.4694 10.1731 18.7336 9.28666C19.2009 9.42758 19.6445 9.58213 20.0598 9.75033C21.7304 10.4367 22.8111 11.3368 22.8111 12.0505C22.8064 12.7641 21.7257 13.6687 20.055 14.3506Z" fill="#61DAFB"/>
<path d="M12.2779 14.1276C13.4691 14.1276 14.4347 13.1975 14.4347 12.0502C14.4347 10.9029 13.4691 9.97278 12.2779 9.97278C11.0868 9.97278 10.1212 10.9029 10.1212 12.0502C10.1212 13.1975 11.0868 14.1276 12.2779 14.1276Z" fill="#61DAFB"/>
</g>
</svg>

<svg xmlns="http://www.w3.org/2000/svg" width="24" height="24" fill="none" viewBox="0 0 24 24">
    <mask id="a" width="24" height="24" x="0" y="0" maskUnits="userSpaceOnUse" style="mask-type:alpha">
        <path fill="#d9d9d9" d="M0 0h24v24H0z"/>
    </mask>
    <g fill="#61dafb" mask="url(#a)">
        <path d="M23.859 12.05c0-1.477-1.92-2.877-4.866-3.745.68-2.891.378-5.191-.953-5.928a2.13 2.13 0 0 0-1.057-.254v1.013c.217 0 .392.041.538.118.642.355.92 1.705.703 3.442-.052.427-.137.877-.24 1.336a24 24 0 0 0-2.998-.495 22 22 0 0 0-1.963-2.273c1.539-1.378 2.983-2.132 3.965-2.132V2.118c-1.298 0-2.997.891-4.715 2.437-1.718-1.537-3.417-2.419-4.715-2.419V3.15c.977 0 2.426.75 3.965 2.118a22 22 0 0 0-1.95 2.269c-1.066.109-2.076.277-3.001.5a13 13 0 0 1-.245-1.319c-.222-1.736.051-3.086.689-3.445.141-.082.325-.119.542-.119V2.141c-.396 0-.755.082-1.066.254-1.326.737-1.624 3.032-.94 5.914-2.935.873-4.846 2.269-4.846 3.742 0 1.477 1.92 2.877 4.865 3.745-.68 2.891-.377 5.191.954 5.928.307.172.665.254 1.062.254 1.297 0 2.996-.89 4.714-2.436 1.718 1.536 3.417 2.418 4.715 2.418.396 0 .755-.082 1.066-.254 1.326-.737 1.624-3.032.94-5.914 2.926-.869 4.837-2.269 4.837-3.742m-6.145-3.032a20 20 0 0 1-.637 1.796 24.51 24.51 0 0 0-1.298-2.155q1.006.143 1.935.36m-2.161 4.842a24 24 0 0 1-1.138 1.736 25.5 25.5 0 0 1-4.256.005 25 25 0 0 1-1.142-1.728q-.538-.894-.982-1.809a24.103 24.103 0 0 1 2.114-3.55 25.5 25.5 0 0 1 4.257-.005q.589.813 1.142 1.728.537.894.982 1.809c-.298.609-.623 1.218-.977 1.814m1.524-.591c.255.609.472 1.218.651 1.809-.618.145-1.27.268-1.944.364a25 25 0 0 0 1.293-2.173m-4.785 4.85a19 19 0 0 1-1.312-1.455q.639.03 1.298.032.666.001 1.312-.032a18 18 0 0 1-1.298 1.455M8.78 15.442a22 22 0 0 1-1.935-.36c.174-.586.391-1.19.637-1.795.193.364.396.727.618 1.09q.332.547.68 1.065m3.487-9.46q.66.656 1.312 1.455a30 30 0 0 0-1.298-.032q-.666-.001-1.312.032c.425-.532.864-1.019 1.298-1.455M8.776 8.659a25 25 0 0 0-1.293 2.169 19 19 0 0 1-.651-1.81c.618-.14 1.269-.263 1.944-.359m-4.271 5.692c-1.67-.687-2.751-1.587-2.751-2.3 0-.714 1.08-1.619 2.75-2.3.407-.169.85-.319 1.308-.46.27.891.623 1.819 1.062 2.769a21 21 0 0 0-1.048 2.754c-.467-.14-.91-.295-1.321-.463m2.539 6.495c-.642-.354-.92-1.704-.703-3.44.052-.428.137-.878.24-1.337.925.218 1.935.386 2.997.495.637.841 1.298 1.605 1.963 2.273-1.538 1.378-2.982 2.132-3.964 2.132a1.16 1.16 0 0 1-.533-.123m11.194-3.463c.222 1.736-.052 3.086-.689 3.445-.142.082-.325.119-.543.119-.977 0-2.425-.75-3.964-2.119a22 22 0 0 0 1.95-2.268 23 23 0 0 0 3-.5q.166.688.246 1.323m1.817-3.032c-.406.168-.85.318-1.307.459a21 21 0 0 0-1.062-2.769c.434-.945.783-1.868 1.048-2.754q.701.21 1.326.463c1.67.687 2.751 1.587 2.751 2.3-.005.714-1.085 1.619-2.756 2.3"/>
        <path d="M12.278 14.128c1.191 0 2.157-.93 2.157-2.078s-.966-2.077-2.157-2.077-2.157.93-2.157 2.077.966 2.078 2.157 2.078"/>
    </g>
</svg>
